src/assets/svg/LogoWhite.svg

<svg width="500" height="500" fill="none" xmlns="http://www.w3.org/2000/svg"><mask id="a" style="mask-type:luminance" maskUnits="userSpaceOnUse" x="149" y="93" width="202" height="221"><path d="M149.38 93.959h201v219.999h-201v-220z" fill="#fff"/></mask><g mask="url(#a)"><path fill-rule="evenodd" clip-rule="evenodd" d="M151.906 313.885h2.412v-94.453l38.625-18.364v112.817h26.953V182.901l-22.12 10.521v-91.537l60.75 31.954v47.828l-22.125 15.151v117.067h26.953V184.214l38.625-26.438v54.281l-22.119-9.088v110.916h26.953v-94.63l38.63 15.865v78.765h4.823v-81.994l-43.453-17.849v-65.417l-43.459 29.734v-47.432l-70.411-37.036v101.828l-43.453 20.666v97.5h2.416zm150.073-96.614v91.776h-17.291v-98.88l17.291 7.104zm-43.453-29.75v121.526h-17.297V199.359l17.297-11.838zm-60.75 11.245 17.292-8.219v118.5h-17.292V198.766z" fill="#F8F8F8"/></g><path d="m182.573 372.316-9.125-23.854h-.146c.166 1.891.25 4.135.25 6.729v17.125h-2.875v-26.917h4.708l8.521 22.209h.146l8.604-22.209h4.667v26.917h-3.125v-17.354c0-1.984.083-4.146.25-6.479h-.146l-9.188 23.833h-2.541zM235.876 358.816c0 4.307-1.093 7.698-3.271 10.166-2.182 2.474-5.208 3.709-9.083 3.709-3.958 0-7.021-1.209-9.187-3.625-2.157-2.427-3.23-5.86-3.23-10.292 0-4.375 1.084-7.76 3.25-10.167 2.167-2.416 5.235-3.625 9.209-3.625 3.859 0 6.875 1.23 9.041 3.688 2.178 2.448 3.271 5.828 3.271 10.146zm-21.437 0c0 3.656.771 6.427 2.312 8.312 1.552 1.875 3.813 2.813 6.771 2.813 2.985 0 5.235-.938 6.75-2.813 1.526-1.875 2.292-4.646 2.292-8.312 0-3.625-.761-6.365-2.271-8.229-1.516-1.875-3.76-2.813-6.729-2.813-2.99 0-5.261.948-6.813 2.833-1.541 1.875-2.312 4.615-2.312 8.209zM252.817 361.129v11.187h-3.125v-26.917h7.375c3.302 0 5.74.636 7.313 1.896 1.583 1.266 2.375 3.167 2.375 5.709 0 3.557-1.807 5.958-5.417 7.208l7.313 12.104h-3.709l-6.52-11.187h-5.605zm0-2.688h4.292c2.208 0 3.823-.437 4.854-1.312 1.026-.886 1.542-2.209 1.542-3.959 0-1.776-.531-3.052-1.583-3.833-1.042-.792-2.724-1.188-5.042-1.188h-4.063v10.292zM301.118 345.399v17.417c0 3.073-.932 5.49-2.791 7.25-1.849 1.75-4.391 2.625-7.625 2.625-3.24 0-5.745-.88-7.521-2.646-1.781-1.776-2.667-4.213-2.667-7.312v-17.334h3.146v17.563c0 2.25.609 3.979 1.833 5.187 1.219 1.198 3.026 1.792 5.417 1.792 2.26 0 4.005-.604 5.229-1.812 1.235-1.209 1.854-2.943 1.854-5.209v-17.521h3.125zM331.249 365.149c0 2.375-.865 4.229-2.584 5.563-1.724 1.323-4.057 1.979-7 1.979-3.198 0-5.646-.417-7.354-1.25v-3a20.06 20.06 0 0 0 3.604 1.104c1.302.266 2.594.396 3.875.396 2.084 0 3.651-.396 4.709-1.188 1.052-.791 1.583-1.895 1.583-3.312 0-.927-.188-1.693-.563-2.292-.375-.593-1.01-1.146-1.895-1.646-.875-.5-2.209-1.067-4-1.708-2.5-.885-4.292-1.943-5.375-3.167-1.073-1.234-1.605-2.843-1.605-4.833 0-2.068.776-3.713 2.334-4.937 1.567-1.235 3.635-1.855 6.208-1.855 2.667 0 5.125.495 7.375 1.48l-.979 2.729c-2.224-.927-4.386-1.396-6.479-1.396-1.657 0-2.953.354-3.896 1.062-.932.709-1.396 1.698-1.396 2.959 0 .932.172 1.698.521 2.291.344.599.927 1.146 1.75 1.646.818.5 2.068 1.052 3.75 1.646 2.818 1 4.755 2.083 5.812 3.25 1.068 1.156 1.605 2.646 1.605 4.479zM104.177 388.436c-1.641 0-2.933.552-3.875 1.646-.948 1.083-1.417 2.578-1.417 4.479 0 1.948.458 3.453 1.375 4.521.917 1.057 2.213 1.583 3.896 1.583 1.041 0 2.229-.187 3.562-.562v1.521c-1.031.385-2.302.583-3.812.583-2.198 0-3.891-.667-5.084-2-1.198-1.333-1.791-3.219-1.791-5.667 0-1.541.281-2.885.854-4.041.583-1.151 1.417-2.042 2.5-2.667s2.354-.937 3.812-.937c1.568 0 2.938.286 4.105.854l-.75 1.5c-1.125-.542-2.25-.813-3.375-.813zM139.679 394.54c0 2.375-.604 4.25-1.813 5.625-1.198 1.365-2.864 2.042-5 2.042-2.198 0-3.89-.667-5.083-2-1.198-1.344-1.792-3.24-1.792-5.688 0-2.427.594-4.312 1.792-5.645 1.193-1.334 2.896-2 5.104-2 2.125 0 3.781.682 4.979 2.041 1.209 1.365 1.813 3.24 1.813 5.625zm-11.854 0c0 2.016.427 3.542 1.291 4.584.86 1.041 2.11 1.562 3.75 1.562 1.636 0 2.88-.521 3.729-1.562.844-1.042 1.271-2.568 1.271-4.584 0-2-.427-3.521-1.271-4.562-.833-1.042-2.073-1.563-3.708-1.563-1.656 0-2.911.531-3.771 1.584-.864 1.041-1.291 2.557-1.291 4.541zM170.431 401.999h-1.958l-8.146-12.5h-.083c.109 1.474.166 2.823.166 4.042v8.458h-1.604v-14.896h1.958l8.125 12.458h.084a85.897 85.897 0 0 1-.104-1.77c-.042-1-.058-1.714-.042-2.146v-8.542h1.604v14.896zM202.227 394.416c0 2.458-.666 4.343-2 5.645-1.333 1.292-3.26 1.938-5.77 1.938h-4.125v-14.896h4.562c2.318 0 4.115.646 5.396 1.938 1.292 1.281 1.937 3.072 1.937 5.375zm-1.833.062c0-1.943-.495-3.406-1.479-4.396-.974-.984-2.417-1.479-4.333-1.479h-2.521v11.896h2.125c2.052 0 3.604-.505 4.646-1.521 1.041-1.01 1.562-2.51 1.562-4.5zM234.254 394.54c0 2.375-.604 4.25-1.812 5.625-1.198 1.365-2.865 2.042-5 2.042-2.198 0-3.891-.667-5.083-2-1.198-1.344-1.792-3.24-1.792-5.688 0-2.427.594-4.312 1.792-5.645 1.192-1.334 2.895-2 5.104-2 2.125 0 3.781.682 4.979 2.041 1.208 1.365 1.812 3.24 1.812 5.625zm-11.854 0c0 2.016.427 3.542 1.292 4.584.859 1.041 2.109 1.562 3.75 1.562 1.635 0 2.88-.521 3.729-1.562.844-1.042 1.271-2.568 1.271-4.584 0-2-.427-3.521-1.271-4.562-.833-1.042-2.073-1.563-3.708-1.563-1.657 0-2.912.531-3.771 1.584-.865 1.041-1.292 2.557-1.292 4.541zM259.965 401.999l-5.041-13.188h-.084c.094 1.042.146 2.282.146 3.709v9.479h-1.604v-14.896h2.604l4.729 12.292h.084l4.75-12.292h2.583v14.896h-1.729v-9.583c0-1.11.047-2.303.146-3.584h-.084l-5.104 13.167h-1.396zM288.011 401.999v-14.896h1.729v14.896h-1.729zm-.229-16.334a16.35 16.35 0 0 0 1.062-1.52 14.28 14.28 0 0 0 .875-1.563h2.063v.208c-.292.448-.74.995-1.334 1.646-.583.641-1.099 1.136-1.541 1.479h-1.125v-.25zM321.259 401.999H319.3l-8.145-12.5h-.084c.11 1.474.167 2.823.167 4.042v8.458h-1.604v-14.896h1.958l8.125 12.458h.083a94.634 94.634 0 0 1-.104-1.77c-.041-1-.057-1.714-.041-2.146v-8.542h1.604v14.896zM341.159 401.999v-14.896h1.729v14.896h-1.729zM375.699 394.54c0 2.375-.604 4.25-1.813 5.625-1.198 1.365-2.864 2.042-5 2.042-2.198 0-3.89-.667-5.083-2-1.198-1.344-1.792-3.24-1.792-5.688 0-2.427.594-4.312 1.792-5.645 1.193-1.334 2.896-2 5.104-2 2.125 0 3.781.682 4.979 2.041 1.209 1.365 1.813 3.24 1.813 5.625zm-11.854 0c0 2.016.427 3.542 1.291 4.584.86 1.041 2.11 1.562 3.75 1.562 1.636 0 2.88-.521 3.729-1.562.844-1.042 1.271-2.568 1.271-4.584 0-2-.427-3.521-1.271-4.562-.833-1.042-2.073-1.563-3.708-1.563-1.656 0-2.911.531-3.771 1.584-.864 1.041-1.291 2.557-1.291 4.541zM403.222 398.04c0 1.308-.474 2.328-1.417 3.063-.948.739-2.239 1.104-3.875 1.104-1.765 0-3.12-.229-4.062-.687v-1.667c.609.25 1.271.453 1.979.604.719.156 1.437.229 2.146.229 1.151 0 2.021-.213 2.604-.646.583-.442.875-1.052.875-1.833 0-.51-.104-.937-.313-1.271-.198-.333-.536-.635-1.02-.916-.49-.277-1.23-.589-2.23-.938-1.375-.5-2.364-1.089-2.958-1.771-.599-.677-.896-1.562-.896-2.646 0-1.151.427-2.067 1.292-2.75.859-.677 2-1.02 3.417-1.02 1.484 0 2.843.27 4.083.812l-.542 1.521c-1.224-.526-2.416-.792-3.583-.792-.917 0-1.636.203-2.146.604-.516.391-.771.933-.771 1.625 0 .532.094.959.292 1.292.193.323.51.62.958.896.459.281 1.151.583 2.084.917 1.552.557 2.625 1.156 3.208 1.791.583.641.875 1.469.875 2.479z" fill="#F8F8F8"/></svg>

<svg width="500" height="500" viewBox="0 0 500 500" fill="none" xmlns="http://www.w3.org/2000/svg">
<mask id="mask0_2215_1330" style="mask-type:luminance" maskUnits="userSpaceOnUse" x="149" y="93" width="202" height="221">
<path d="M149.38 93.9585H350.38V313.958H149.38V93.9585Z" fill="white"/>
</mask>
<g mask="url(#mask0_2215_1330)">
<path fill-rule="evenodd" clip-rule="evenodd" d="M151.906 313.885H154.318V219.432L192.943 201.068V313.885H219.896V182.901L197.776 193.422V101.885L258.526 133.839V181.667L236.401 196.818V313.885H263.354V184.214L301.979 157.776V212.057L279.86 202.969V313.885H306.813V219.255L345.443 235.12V313.885H350.266V231.891L306.813 214.042V148.625L263.354 178.359V130.927L192.943 93.8906V195.719L149.49 216.385V313.885H151.906ZM301.979 217.271V309.047H284.688V210.167L301.979 217.271ZM258.526 187.521V309.047H241.229V199.359L258.526 187.521ZM197.776 198.766L215.068 190.547V309.047H197.776V198.766Z" fill="#F8F8F8"/>
</g>
<path d="M182.573 372.316L173.448 348.462H173.302C173.468 350.353 173.552 352.597 173.552 355.191V372.316H170.677V345.399H175.385L183.906 367.608H184.052L192.656 345.399H197.323V372.316H194.198V354.962C194.198 352.978 194.281 350.816 194.448 348.483H194.302L185.114 372.316H182.573Z" fill="#F8F8F8"/>
<path d="M235.876 358.816C235.876 363.123 234.783 366.514 232.605 368.982C230.423 371.456 227.397 372.691 223.522 372.691C219.564 372.691 216.501 371.482 214.335 369.066C212.178 366.639 211.105 363.206 211.105 358.774C211.105 354.399 212.189 351.014 214.355 348.607C216.522 346.191 219.59 344.982 223.564 344.982C227.423 344.982 230.439 346.212 232.605 348.67C234.783 351.118 235.876 354.498 235.876 358.816ZM214.439 358.816C214.439 362.472 215.21 365.243 216.751 367.128C218.303 369.003 220.564 369.941 223.522 369.941C226.507 369.941 228.757 369.003 230.272 367.128C231.798 365.253 232.564 362.482 232.564 358.816C232.564 355.191 231.803 352.451 230.293 350.587C228.777 348.712 226.533 347.774 223.564 347.774C220.574 347.774 218.303 348.722 216.751 350.607C215.21 352.482 214.439 355.222 214.439 358.816Z" fill="#F8F8F8"/>
<path d="M252.817 361.129V372.316H249.692V345.399H257.067C260.369 345.399 262.807 346.035 264.38 347.295C265.963 348.561 266.755 350.462 266.755 353.004C266.755 356.561 264.948 358.962 261.338 360.212L268.651 372.316H264.942L258.422 361.129H252.817ZM252.817 358.441H257.109C259.317 358.441 260.932 358.004 261.963 357.129C262.989 356.243 263.505 354.92 263.505 353.17C263.505 351.394 262.974 350.118 261.922 349.337C260.88 348.545 259.198 348.149 256.88 348.149H252.817V358.441Z" fill="#F8F8F8"/>
<path d="M301.118 345.399V362.816C301.118 365.889 300.186 368.306 298.327 370.066C296.478 371.816 293.936 372.691 290.702 372.691C287.462 372.691 284.957 371.811 283.181 370.045C281.4 368.269 280.514 365.832 280.514 362.733V345.399H283.66V362.962C283.66 365.212 284.269 366.941 285.493 368.149C286.712 369.347 288.519 369.941 290.91 369.941C293.17 369.941 294.915 369.337 296.139 368.129C297.374 366.92 297.993 365.186 297.993 362.92V345.399H301.118Z" fill="#F8F8F8"/>
<path d="M331.249 365.149C331.249 367.524 330.384 369.378 328.665 370.712C326.941 372.035 324.608 372.691 321.665 372.691C318.467 372.691 316.019 372.274 314.311 371.441V368.441C315.405 368.899 316.608 369.269 317.915 369.545C319.217 369.811 320.509 369.941 321.79 369.941C323.874 369.941 325.441 369.545 326.499 368.753C327.551 367.962 328.082 366.858 328.082 365.441C328.082 364.514 327.894 363.748 327.519 363.149C327.144 362.556 326.509 362.003 325.624 361.503C324.749 361.003 323.415 360.436 321.624 359.795C319.124 358.91 317.332 357.852 316.249 356.628C315.176 355.394 314.644 353.785 314.644 351.795C314.644 349.727 315.42 348.082 316.978 346.858C318.545 345.623 320.613 345.003 323.186 345.003C325.853 345.003 328.311 345.498 330.561 346.483L329.582 349.212C327.358 348.285 325.196 347.816 323.103 347.816C321.446 347.816 320.15 348.17 319.207 348.878C318.275 349.587 317.811 350.576 317.811 351.837C317.811 352.769 317.983 353.535 318.332 354.128C318.676 354.727 319.259 355.274 320.082 355.774C320.9 356.274 322.15 356.826 323.832 357.42C326.65 358.42 328.587 359.503 329.644 360.67C330.712 361.826 331.249 363.316 331.249 365.149Z" fill="#F8F8F8"/>
<path d="M104.177 388.436C102.536 388.436 101.244 388.988 100.302 390.082C99.3537 391.165 98.8849 392.66 98.8849 394.561C98.8849 396.509 99.3433 398.014 100.26 399.082C101.177 400.139 102.473 400.665 104.156 400.665C105.197 400.665 106.385 400.478 107.718 400.103V401.624C106.687 402.009 105.416 402.207 103.906 402.207C101.708 402.207 100.015 401.54 98.8224 400.207C97.6245 398.874 97.0308 396.988 97.0308 394.54C97.0308 392.999 97.312 391.655 97.8849 390.499C98.4683 389.348 99.3016 388.457 100.385 387.832C101.468 387.207 102.739 386.895 104.197 386.895C105.765 386.895 107.135 387.181 108.302 387.749L107.552 389.249C106.427 388.707 105.302 388.436 104.177 388.436Z" fill="#F8F8F8"/>
<path d="M139.679 394.54C139.679 396.915 139.075 398.79 137.866 400.165C136.668 401.53 135.002 402.207 132.866 402.207C130.668 402.207 128.976 401.54 127.783 400.207C126.585 398.863 125.991 396.967 125.991 394.519C125.991 392.092 126.585 390.207 127.783 388.874C128.976 387.54 130.679 386.874 132.887 386.874C135.012 386.874 136.668 387.556 137.866 388.915C139.075 390.28 139.679 392.155 139.679 394.54ZM127.825 394.54C127.825 396.556 128.252 398.082 129.116 399.124C129.976 400.165 131.226 400.686 132.866 400.686C134.502 400.686 135.746 400.165 136.595 399.124C137.439 398.082 137.866 396.556 137.866 394.54C137.866 392.54 137.439 391.019 136.595 389.978C135.762 388.936 134.522 388.415 132.887 388.415C131.231 388.415 129.976 388.946 129.116 389.999C128.252 391.04 127.825 392.556 127.825 394.54Z" fill="#F8F8F8"/>
<path d="M170.431 401.999H168.473L160.327 389.499H160.244C160.353 390.973 160.41 392.322 160.41 393.541V401.999H158.806V387.103H160.764L168.889 399.561H168.973C168.957 399.369 168.921 398.78 168.869 397.791C168.827 396.791 168.811 396.077 168.827 395.645V387.103H170.431V401.999Z" fill="#F8F8F8"/>
<path d="M202.227 394.416C202.227 396.874 201.561 398.759 200.227 400.061C198.894 401.353 196.967 401.999 194.457 401.999H190.332V387.103H194.894C197.212 387.103 199.009 387.749 200.29 389.041C201.582 390.322 202.227 392.113 202.227 394.416ZM200.394 394.478C200.394 392.535 199.899 391.072 198.915 390.082C197.941 389.098 196.498 388.603 194.582 388.603H192.061V400.499H194.186C196.238 400.499 197.79 399.994 198.832 398.978C199.873 397.968 200.394 396.468 200.394 394.478Z" fill="#F8F8F8"/>
<path d="M234.254 394.54C234.254 396.915 233.65 398.79 232.442 400.165C231.244 401.53 229.577 402.207 227.442 402.207C225.244 402.207 223.551 401.54 222.359 400.207C221.161 398.863 220.567 396.967 220.567 394.519C220.567 392.092 221.161 390.207 222.359 388.874C223.551 387.54 225.254 386.874 227.463 386.874C229.588 386.874 231.244 387.556 232.442 388.915C233.65 390.28 234.254 392.155 234.254 394.54ZM222.4 394.54C222.4 396.556 222.827 398.082 223.692 399.124C224.551 400.165 225.801 400.686 227.442 400.686C229.077 400.686 230.322 400.165 231.171 399.124C232.015 398.082 232.442 396.556 232.442 394.54C232.442 392.54 232.015 391.019 231.171 389.978C230.338 388.936 229.098 388.415 227.463 388.415C225.806 388.415 224.551 388.946 223.692 389.999C222.827 391.04 222.4 392.556 222.4 394.54Z" fill="#F8F8F8"/>
<path d="M259.965 401.999L254.924 388.811H254.84C254.934 389.853 254.986 391.093 254.986 392.52V401.999H253.382V387.103H255.986L260.715 399.395H260.799L265.549 387.103H268.132V401.999H266.403V392.416C266.403 391.306 266.45 390.113 266.549 388.832H266.465L261.361 401.999H259.965Z" fill="#F8F8F8"/>
<path d="M288.011 401.999V387.103H289.74V401.999H288.011ZM287.782 385.665C288.115 385.249 288.469 384.743 288.844 384.145C289.219 383.551 289.511 383.03 289.719 382.582H291.782V382.79C291.49 383.238 291.042 383.785 290.448 384.436C289.865 385.077 289.349 385.572 288.907 385.915H287.782V385.665Z" fill="#F8F8F8"/>
<path d="M321.259 401.999H319.3L311.155 389.499H311.071C311.181 390.973 311.238 392.322 311.238 393.541V401.999H309.634V387.103H311.592L319.717 399.561H319.8C319.785 399.369 319.748 398.78 319.696 397.791C319.655 396.791 319.639 396.077 319.655 395.645V387.103H321.259V401.999Z" fill="#F8F8F8"/>
<path d="M341.159 401.999V387.103H342.888V401.999H341.159Z" fill="#F8F8F8"/>
<path d="M375.699 394.54C375.699 396.915 375.095 398.79 373.886 400.165C372.688 401.53 371.022 402.207 368.886 402.207C366.688 402.207 364.996 401.54 363.803 400.207C362.605 398.863 362.011 396.967 362.011 394.519C362.011 392.092 362.605 390.207 363.803 388.874C364.996 387.54 366.699 386.874 368.907 386.874C371.032 386.874 372.688 387.556 373.886 388.915C375.095 390.28 375.699 392.155 375.699 394.54ZM363.845 394.54C363.845 396.556 364.272 398.082 365.136 399.124C365.996 400.165 367.246 400.686 368.886 400.686C370.522 400.686 371.766 400.165 372.615 399.124C373.459 398.082 373.886 396.556 373.886 394.54C373.886 392.54 373.459 391.019 372.615 389.978C371.782 388.936 370.542 388.415 368.907 388.415C367.251 388.415 365.996 388.946 365.136 389.999C364.272 391.04 363.845 392.556 363.845 394.54Z" fill="#F8F8F8"/>
<path d="M403.222 398.04C403.222 399.348 402.748 400.368 401.805 401.103C400.857 401.842 399.566 402.207 397.93 402.207C396.165 402.207 394.81 401.978 393.868 401.52V399.853C394.477 400.103 395.139 400.306 395.847 400.457C396.566 400.613 397.284 400.686 397.993 400.686C399.144 400.686 400.014 400.473 400.597 400.04C401.18 399.598 401.472 398.988 401.472 398.207C401.472 397.697 401.368 397.27 401.159 396.936C400.961 396.603 400.623 396.301 400.139 396.02C399.649 395.743 398.909 395.431 397.909 395.082C396.534 394.582 395.545 393.993 394.951 393.311C394.352 392.634 394.055 391.749 394.055 390.665C394.055 389.514 394.482 388.598 395.347 387.915C396.206 387.238 397.347 386.895 398.764 386.895C400.248 386.895 401.607 387.165 402.847 387.707L402.305 389.228C401.081 388.702 399.889 388.436 398.722 388.436C397.805 388.436 397.086 388.639 396.576 389.04C396.06 389.431 395.805 389.973 395.805 390.665C395.805 391.197 395.899 391.624 396.097 391.957C396.29 392.28 396.607 392.577 397.055 392.853C397.514 393.134 398.206 393.436 399.139 393.77C400.691 394.327 401.764 394.926 402.347 395.561C402.93 396.202 403.222 397.03 403.222 398.04Z" fill="#F8F8F8"/>
</svg>
